X:1
T:My Grace Is Sufficient for Thee
T:My Grace Is Sufficient for Thee
T:Henry R. Crane
T:J. David Crane Fleet (1877–1898),  alt.
T:Public Domain Courtesy of the Cyber Hymnal™
T:Public Domain Courtesy of the Cyber Hymnal™
C:Henry R. Crane
Z:Public Domain
Z:Courtesy of the Cyber Hymnal™
%%score ( 1 2 ) ( 3 4 )
L:1/8
Q:1/4=135
M:6/4
K:Db
V:1 treble 
V:2 treble 
V:3 bass 
V:4 bass 
V:1
"^Andantino e legato" [DF]2 | [EA]2 [CE]2 [DF]2 [EG]2 [Gc]2 [GB]2 | ([FB]4 [DF]2) [FA]4 [DF]2 | %3
w: 1.~I|sat in the deep- en- ing|twi- * light, With|
w: 2.~While|think- ing o’er all of the|sor- * rows, Trans-|
w: 3.~“My|chi- ld, thy strength can- not|con- * quer The|
w: 4.~Then|turned I a- way from the|dark- * ness, Full|
 [EG]2 [EA]2 [EB]2 [Gc]4 [GB]2 | ([GB]6 [FA]4) [EG]2 | [DF]2 [D=E]2 [DF]2 [FA]2 [E=G]2 [FA]2 | %6
w: faith that was weak and|dim; * The|dear Sav- ior sto- od be-|
w: gress- ions per- formed each|day, * How|oft- en I wan- dered and|
w: dai- ly al- lures of|sin; * ’Tis|on- ly My grace that can|
w: la- den with faith and|cheer; * If|on- ly I’d known thro’ that|
 [Fd]6 [GB]4 [=E=G]2 | [FA]2 [DF]2 [EG]2 F4 [CE]2 | D6- D4 [DF]2 | %9
w: side me, But|I had no thought of|Him. * My|
w: strayed from The|strai- ght and nar- row|way, * I|
w: help thee Life’s|vic- t’ries to brave- ly|win. * Trust|
w: sad day The|dear Sav- ior ever was|near; * And|
 [EA]2 [CE]2 [DF]2 [EG]2 [DF]2 [EG]2 | [FA]2 [Fd]8 [=E=G]2 | [FA]2 [Gc]2 [=FB]2 [GB]2 [Gc]2 [Ed]2 | %12
w: spir- it was wea- ry of|sin- ning, But|blind- ed, my eyes could not|
w: moaned, “O can I be His|chi- ld— His|chi- ld?” I wear- i- ly|
w: not in thy- self, weak and|help- less, And|long- ing from sin to be|
w: now, when my spir- it grows|wea- ry, And|thick, hea- vy mists there may|
 [Ge]6- [Ge]4 [G=e]2 | [Af]2 [Fd]2 [DF]2 [FA]2 [GB]2 [A_c]2 | ([GB]4 [G__B]2) [FA]4 [=E=G]2 | %15
w: see * The|love of my sor- row- ing|Sav- * ior, E’en|
w: cried; * Then|un- to my sad and lone-|ly * heart The|
w: free, * But|look up, My child, and re-|mem- * ber My|
w: be, * The|lov- ing and beau- tiful words|I’ll * hear: “My|
 ([FA]2 [EG]2) [DF]2 [DF]2 [CF]2 [CE]2 | D6- D4 |] %17
w: then * so ne- ar to|me. *|
w: Sav- * ior sweet- ly re-|plied: *|
w: grace~is * suf- fi- cient for|thee.” *|
w: grace~is * suf- fi- cient for|thee.” *|
V:2
 x2 | x12 | x12 | x12 | x12 | x12 | x12 | x6 (D2 C2) x2 | D6- D4 x2 | x12 | x12 | x12 | x12 | x12 | %14
 x12 | x12 | D6- D4 |] %17
V:3
 [D,A,]2 | [A,,C]2 [A,,A,]2 [A,,A,]2 [A,C]2 [A,E]2 [A,C]2 | (D4 A,2) [D,D]4 [D,A,]2 | %3
 [B,C]2 [A,C]2 [G,C]2 [A,E]4 [A,,C]2 | (D2 C2 B,2 [D,D]4) [C,A,]2 | %5
 [D,A,]2 [D,=G,]2 [D,A,]2 [D,D]2 [D,D]2 [D,D]2 | [B,D]6 [G,D]4 [__B,D]2 | %7
 [A,D]2 [D,A,]2 [G,,B,]2 (A,2 G,2) [A,,G,]2 | [D,F,]6- [D,F,]4 [D,A,]2 | %9
 [A,,C]2 [A,,A,]2 [D,A,]2 [C,A,]2 [D,A,]2 [A,,C]2 | [D,D]2 [F,A,]8 [__B,D]2 | %11
 [A,D]2 [G,E]2 [=G,D]2 [A,D]2 [A,E]2 [G,B,]2 | [A,C]6- [A,C]4 [A,C]2 | %13
 [D,D]2 [D,A,]2 [D,A,]2 [D,D]2 [D,D]2 [F,D]2 | [G,D]6 [D,D]4 [__B,D]2 | %15
 ([A,D]2 [A,C]2) [A,,A,]2 [A,,A,]2 [A,,G,]2 [A,,G,]2 | [D,F,]6- [D,F,]4 |] %17
V:4
 x2 | x12 | D,6 x6 | x12 | D,6- x6 | x12 | x12 | x6 A,,4 x2 | x12 | x12 | x12 | x12 | x12 | x12 | %14
 x12 | x12 | x10 |] %17

